src/components/bit-brush-mode/brush.svg

<?xml version="1.0" encoding="UTF-8"?>
<svg width="20px" height="20px" viewBox="0 0 20 20" version="1.1" xmlns="http://www.w3.org/2000/svg" xmlns:xlink="http://www.w3.org/1999/xlink">
    <!-- Generator: Sketch 49.3 (51167) - http://www.bohemiancoding.com/sketch -->
    <title>brush</title>
    <desc>Created with Sketch.</desc>
    <defs></defs>
    <g id="brush" stroke="none" stroke-width="1" fill="none" fill-rule="evenodd">
        <path d="M9.50062663,11.4981734 L10.4995734,11.4981734 L10.4995734,14.4990134 L9.49962669,14.4990134 L9.49962669,11.4991734 L6.49978668,11.4991734 L6.49978668,10.4992267 L9.50062663,10.4992267 L9.50062663,11.4981734 Z M13.4992134,3.5 L16.5000533,3.5 L16.5000533,4.49994667 L17.5,4.49994667 L17.5,7.49978668 L16.5000533,7.49978668 L16.5000533,8.4987334 L15.4991067,8.4987334 L15.4991067,9.49868007 L14.49916,9.49868007 L14.49916,10.4986267 L12.4992667,10.4986267 L12.4992667,11.4985734 L11.49932,11.4985734 L11.49932,10.4986267 L10.4993734,10.4986267 L10.4993734,9.49868007 L9.4994267,9.49868007 L9.4994267,7.49978668 L10.4993734,7.49978668 L10.4993734,6.49984001 L11.49932,6.49984001 L11.49932,5.49989334 L12.4992667,5.49989334 L12.4992667,4.49994667 L13.4992134,4.49994667 L13.4992134,3.5 Z M5.49954002,11.4987734 L6.49948669,11.4987734 L6.49948669,12.49972 L7.50043331,12.49972 L7.50043331,13.4996667 L8.50037998,13.4996667 L8.50037998,14.4996134 L9.50032665,14.4996134 L9.50032665,15.49956 L8.50037998,15.49956 L8.50037998,16.4985067 L4.49959336,16.4985067 L4.49959336,15.49956 L3.49964669,15.49956 L3.49964669,13.4996667 L5.49954002,13.4996667 L5.49954002,11.4987734 Z M2.5,13.4990667 L2.5,12.49912 L3.49994667,12.49912 L3.49994667,13.4990667 L2.5,13.4990667 Z" id="Combined-Shape" fill="#575E75"></path>
    </g>
</svg>

<svg width="20" height="20" xmlns="http://www.w3.org/2000/svg"><path d="M9.50063 11.49817h.99894v3.00084h-.99994v-2.99984H6.49979v-.99994h3.00084v.99894zM13.4992 3.5h3.00084v.99995H17.5v2.99984h-.99995v.99894h-1.00094v.99995h-.99995v.99995h-1.9999v.99994h-.99994v-.99994h-.99995v-.99995h-.99994v-1.9989h.99994v-.99994h.99995v-.99995h.99995v-.99994h.99994V3.5zm-7.99967 7.99877h.99995v1.00095h1.00094v.99995h.99995v.99994h.99995v.99995h-.99995v.99895H4.49959v-.99895h-.99994v-1.9999h1.99989v-2.00089zM2.5 13.49907v-.99995h.99995v.99995H2.5z" fill="#575E75" fill-rule="evenodd"/></svg>
